X:1
T:Advent Glory
T:J. Harker (1880-?)
T:Advent Glory
T:Public Domain
T:Public Domain
T:Public Domain
C:J. Harker (1880-?)
Z:Public Domain
%%score ( 1 2 ) ( 3 4 )
L:1/8
M:4/4
K:Ab
V:1 treble 
V:2 treble 
V:3 bass 
V:4 bass 
V:1
 [CE] | [CE][CE][CF][CE] [CA][CA][CG][CF] | [DG][DG][DA][DG] [B,D]3 | %3
w: 1.~The|day is fast ap- proach- ing when the|Sav- ior shall ap- pear,|
w: 2.~In|all His Fa- ther’s glo- ry, clothed in|ma- jes- ty un- veiled,|
w: 3.~Oh,|may we all as sons of light be|watch- ing un- to prayer,|
 [B,D][B,D][B,D][=A,C] [B,D][DF][DF][DG][DF] | [CE]6 z [CE] | [CE][CE][DF][DF] [CA][CA][CG][DF] | %6
w: And ev- ery eye His glo- ry shall be-|hold; The|to- kens of His com- ing fill the|
w: With my- riads of the shin- ing an- gel|band, The|King de- scends tri- umph- ant in Whose|
w: For sure- ly our re- demp- tion draw- eth|nigh; With|ho- ly zeal and pa- tient faith, let|
 [EG][EG][EA][EG] [EB]3 [EB] | [AB][AB][Ac][AB] [AB][AB][Ac][A=d] | [Ge]6 ||"^Refrain" [Ge]2 | %10
w: loy- al heart with cheer Though|strife a- bounds and love is wax- ing|cold.|We’ll|
w: might we have pre- vailed, And|all the ran- somed rise at His com-|mand.||
w: ev- ery soul pre- pare To|join the ad- vent chor- us in the|sky.||
 [Ae]4- [Ae][Ec][EB][EA] | [EG]6 E[EF] | [EG][EG][GB][^Fc] [Gd][G=f][Ae][Gd] | [Ac]6 [Ge]2 | %14
w: see * Him as He|is, And the|ness of His glo- ry we shall share;|We’ll see|
w: ||||
w: ||||
 [Ae]4- [Ae][Ec][EB][EA] | [Af]6 [FA][_Fd] | [Ec][CA][CA]E [DG][DF][DE][DB] | [CA]6 z |] %18
w: Him * as He is,|And the like-|ness of His im- age we shall bear.||
w: ||||
w: ||||
V:2
 x | x8 | x7 | x9 | x8 | x8 | x8 | x8 | x6 || x2 | x8 | x6 E x | x8 | x8 | x8 | x8 | x3 E x4 | %17
w: |||||||||||bright-||||||
 x7 |] %18
w: |
V:3
 [A,,A,] | [A,,A,][A,,A,][A,,A,][A,,A,] [A,,E,][A,,E,][A,,E,][A,,E,] | %2
w: ~|~ ~ ~ ~ ~ ~ ~ ~|
 [B,,E,][B,,E,][B,,E,][B,,E,] [E,G,]3 | [E,G,][E,G,][E,G,][E,^F,] [E,G,][E,G,][E,G,][E,B,][E,G,] | %4
w: ~ ~ ~ ~ ~|~ ~ ~ ~ ~ ~ ~ ~ ~|
 [A,,A,]6 z [A,,A,] | [A,,A,][A,,A,][A,,A,][A,,A,] [A,,E,][A,,E,][A,,E,][A,,E,] | %6
w: ~ ~|~ ~ ~ ~ ~ ~ ~ ~|
 [B,,B,][B,,B,][B,,B,][B,,B,] [B,,B,]3 [G,,B,] | %7
w: ~ ~ ~ ~ ~ ~|
 [F,,=D][F,,D][F,,D][F,,D] [B,,D][B,,D][B,,D][B,,F] | [E,E]6 || [E,D]2 | A,,A,,C,E, CC(CC) | %11
w: ~ ~ ~ ~ ~ ~ ~ ~|~|We’ll|see Him as He is, We’ll see *|
 E,E,G,B, E,2 [E,G,][E,A,] | [E,B,][E,B,][E,D][E,=A,] [E,B,][D,B,][C,C][B,,E] | %13
w: is, ~ ~ ~ ~ ~ ~|~ ~ ~ ~ we shall * share;|
 A,,2 C,E, A,2 [E,D]2 | A,,A,,C,E, CC(CC) | D,D,F,A, D,2 [D,A,][G,,B,] | %16
w: We’ll see Him as He|We’ll see Him as He is, * *||
 [A,,A,][A,,A,][A,,A,][C,A,] [B,,B,][B,,A,][E,G,][E,G,] | [A,,A,]6 z |] %18
w: ||
V:4
 x | x8 | x7 | x9 | x8 | x8 | x8 | x8 | x6 || x2 | C4- A,2 A,2 | B,6 x2 | x8 | E6 x2 | %14
w: ||||||||||Him as He|~||is,|
 C4- A,2 A,2 | D6 x2 | x8 | x7 |] %18
w: ||||

